X: 542
T: Abby Normal's
R: reel
M: 4/4
K: Dmajor
|:fgfe dAFA|dcde fed2|efed cABc|defg ^gaba|
fgfe dAFA|dcde fed2|efed cABc|1 d2ce d2de:|2 d2ce d2=FE||
K: Dmin
|:DEFG A=B^cd|ed^cd A2BA|GABA GFE^C|DEFG ^GABA|
DEFG ^GA=B^c|dcde fed2|efed eA=B^c|1 d2ce d2FE:|2 d2ce d2d^c||
K: Bmin
B^ABc dcBd|cBdc B2^AB|cF^EF cF^EF|dF^EF dF^EF|
B^ABc dcBd|cBdc B2^AB|cF^EF GFdc|1 B2^Ac B3F:|2 B2^Ac B2de||

